X:59
T:Stage
Z: id:dc-hornpipe-53
M:C|
L:1/8
K:G Major
GA|BGFG EGDB,|G,B,DB cBAG|A3B cBcB|(3ABA (3GFE (3DED (3CB,A,|!
G,B,DB cBcd|e3f ga (3gfe|dbca Bgfg|ecAF G2:|!
ef|ga (3gfe dgbd|ceac Bdgd|BGDB (3cBA ag|fgfe defd|!
ga (3gfe dgbd|ceac Bdgd|(3gag (3fgf egfg|ecAF G2:|!

